build/img/sprite/icon-ok.svg

<svg width="32" height="32" viewBox="0 0 32 32" fill="none" xmlns="http://www.w3.org/2000/svg">
<rect width="32" height="32" rx="5" fill="currentColor"/>
<path fill-rule="evenodd" clip-rule="evenodd" d="M16.614 10.5233C17.5388 10.8384 18.0217 11.8162 17.7025 12.7051C17.3751 13.594 16.3603 14.0626 15.4355 13.7556C14.5107 13.4404 14.0279 12.4626 14.3471 11.5738C14.6744 10.6768 15.6892 10.2081 16.614 10.5233ZM18.66 16.6566C18.9219 16.503 19.2083 16.3576 19.5111 16.3414C19.8303 16.3253 20.2395 16.495 20.4523 16.7132C20.9025 17.1818 20.9352 17.9657 20.4359 18.4102C20.3623 18.4829 20.2641 18.5556 20.1659 18.6122C19.282 19.1132 18.7746 19.3556 17.7598 19.5738C17.8907 19.6788 18.0299 19.8081 18.1444 19.9132C18.8319 20.5677 19.5275 21.2142 20.2068 21.8687C20.657 22.297 20.6733 22.9192 20.3459 23.4202C19.994 23.9536 19.2739 24.091 18.7091 23.7838C18.5619 23.703 18.4227 23.5899 18.2672 23.4445C17.5388 22.7414 16.8023 22.0465 16.0575 21.3596C15.9593 21.4485 15.7956 21.6182 15.6729 21.7394C15.0263 22.3698 14.3962 23.0081 13.7415 23.6303C13.2095 24.1556 12.4075 24.1071 11.8919 23.5738C11.5072 23.1778 11.4581 22.5394 11.8019 22.095C11.9983 21.8606 12.2192 21.6506 12.4402 21.4404C12.9394 20.9394 13.7823 20.1637 14.2407 19.6546C13.4141 19.396 12.4075 19.089 11.72 18.6041C11.1307 18.1838 11.0489 17.4727 11.4418 16.9071C11.5891 16.6889 11.8019 16.5354 12.1374 16.4546C12.5139 16.3657 12.8821 16.4465 13.2177 16.6242C14.2079 17.1657 15.0673 17.4404 16.3685 17.3515C17.1706 17.2546 17.9644 17.0526 18.66 16.6566ZM17.4488 8.2364C19.6831 8.996 20.8534 11.3556 20.0677 13.505C19.282 15.6546 16.835 16.7859 14.6007 16.0344C12.3665 15.2748 11.1963 12.9152 11.9819 10.7657C12.7675 8.60808 15.2146 7.47679 17.4488 8.2364Z" fill="white"/>
</svg>

<svg width="32" height="32" fill="none" xmlns="http://www.w3.org/2000/svg"><rect width="32" height="32" rx="5" fill="currentColor"/><path fill-rule="evenodd" clip-rule="evenodd" d="M16.614 10.523c.925.315 1.408 1.293 1.088 2.182-.327.889-1.342 1.358-2.267 1.05-.924-.315-1.407-1.292-1.088-2.181.327-.897 1.342-1.366 2.267-1.05zm2.046 6.134c.262-.154.548-.3.851-.316.32-.016.729.154.941.372.45.469.483 1.253-.016 1.697a1.376 1.376 0 01-.27.202c-.884.501-1.391.744-2.406.962.13.105.27.234.384.34.688.654 1.384 1.3 2.063 1.955.45.428.466 1.05.139 1.551-.352.534-1.072.671-1.637.364a2.24 2.24 0 01-.442-.34 133.547 133.547 0 00-2.21-2.084c-.098.088-.261.258-.384.38-.647.63-1.277 1.268-1.931 1.89-.533.526-1.335.477-1.85-.056a1.139 1.139 0 01-.09-1.479c.196-.234.417-.444.638-.655.5-.5 1.342-1.276 1.8-1.785-.826-.259-1.832-.566-2.52-1.05-.59-.421-.671-1.132-.278-1.698.147-.218.36-.372.695-.452.377-.09.745-.008 1.08.17.99.54 1.85.815 3.152.727.802-.097 1.595-.3 2.291-.695zm-1.211-8.42c2.234.759 3.404 3.119 2.619 5.268-.786 2.15-3.233 3.28-5.467 2.53-2.235-.76-3.405-3.12-2.62-5.27.787-2.157 3.234-3.288 5.468-2.529z" fill="#fff"/></svg>
